common/assets/images/onboarding/slide-06.svg

<svg height="473" viewBox="0 0 553 473" width="553" xmlns="http://www.w3.org/2000/svg"><g fill="none"><g transform="translate(20 20)"><path d="m8.72 8.52h448v400h-448z" fill="#dfdfe3"/><path d="m488.72 264.52h16v-32h-16v-32h-144v32h16v32h-16v16c-27.664827-.016334-52.892441 15.819673-64.903086 40.741296-12.010644 24.921624-8.679969 54.520918 8.568829 76.150108s45.364884 31.46267 72.334257 25.298596v1.81h144v-32h-16v-32h16v-32h-16z" fill="#ffa21a"/><path d="m266.34 368.52h-217.62v-48h24v-80h-24v-64h24v-80h-24v-48h368v144h-32v-64h16v-16h-32v80h-17.13c-7.7-58.8-58-104.38-118.86-104.38-47.600497-.1145892-90.76881 27.917069-110.028075 71.447532-19.259264 43.530463-10.96813 94.329422 21.132574 129.477185s81.941695 47.998941 127.035501 32.755283c-6.153148 14.76163-7.731309 31.030967-4.53 46.7z" fill="#a1abb8"/><path d="m288.21 295.95c-47.121207 29.926126-109.442061 17.538776-141.536894-28.13291-32.094832-45.671686-22.632478-108.503199 21.489953-142.696653 44.122431-34.1934534 107.327399-27.6767578 143.544805 14.800068 36.217405 42.476825 32.660599 105.917225-8.077864 144.079495" fill="#7d8694"/><g fill="#000"><path d="m64.72 64.52h16v16h-16z"/><path d="m384.72 64.52h16v16h-16z"/><path d="m64.72 336.52h16v16h-16z"/><path d="m224.72 272.52h16v24h-16z"/><path d="m224.72 120.52h16v24h-16z"/><path d="m144.72 200.52h24v16h-24z"/><path d="m296.72 200.52h24v16h-24z"/><path d="m278.430037 250.23702h15.99v24h-15.99z" transform="matrix(.70685991 -.70735356 .70735356 .70685991 -101.53163 279.475954)"/><path d="m170.963294 142.738867h15.99v24h-15.99z" transform="matrix(.70685991 -.70735356 .70735356 .70685991 -56.995239 171.946952)"/><path d="m166.986632 254.278271h24v15.99h-24z" transform="matrix(.70723018 -.70698336 .70698336 .70723018 -133.020954 203.326267)"/><path d="m274.451947 146.785667h24v15.99h-24z" transform="matrix(.70723018 -.70698336 .70698336 .70723018 -25.562872 247.831867)"/><path d="m280.07 201.88 14.78-15.32-21.12-2.63c-12.649045-21.160443-39.271269-29.298106-61.589443-18.826155-22.318175 10.47195-33.074561 36.148097-24.884467 59.400732 8.190095 23.252635 32.6633 36.520137 56.617774 30.693832 23.954475-5.826305 39.600364-28.851736 36.196136-53.268409zm-47.34 43.8c-20.522901 0-37.16-16.637099-37.16-37.16s16.637099-37.16 37.16-37.16 37.16 16.637099 37.16 37.16c0 9.857178-3.916433 19.310485-10.887447 26.279624-6.971015 6.96914-16.425376 10.883029-26.282553 10.880376z"/></g><path d="m344.72 304.52c-26.509668 0-48 21.490332-48 48s21.490332 48 48 48 48-21.490332 48-48-21.490332-48-48-48zm0 90.19c-23.300894 0-42.19-18.889106-42.19-42.19s18.889106-42.19 42.19-42.19 42.19 18.889106 42.19 42.19c-.022051 23.291754-18.898246 42.167949-42.19 42.19z" fill="#fff"/><path d="m496.72 288.52v-16h16v-48h-16v-32h-32v-192h-464v416h72v16h72v-16h152.21c15.964444 12.047837 35.892592 17.616574 55.79 15.59v.41h160v-48h-16v-16h16v-48h-16zm-16-80v16h-128v-16zm-57.62 160h57.62v16h-62.72c2.268921-5.135889 3.981998-10.499731 5.11-16zm-14.54-64h72.15v16h-62.71c-2.510936-5.68164-5.675626-11.051211-9.43-16zm-7.85-16h-8.21c-11.590067-8.734071-25.351508-14.125899-39.79-15.59v-.41h128v16zm-112.51 7.43c-47.131086 29.909133-109.446658 17.500654-141.525845-28.181084-32.079187-45.681739-22.596674-108.509144 21.53588-142.688277 44.132554-34.1791326 107.334484-27.6433083 143.538865 14.843611 36.20438 42.486918 32.629529 105.925245-8.1189 144.07575-5.606336 3.342172-10.784502 7.355082-15.42 11.95zm-21.87 72.57h-217.61v-48h24v-80h-24v-64h24v-80h-24v-48h368v144h-32v-64h16v-16h-32v80h-17.13c-7.7-58.8-58-104.38-118.86-104.38-47.600497-.1145892-90.76881 27.917069-110.028075 71.447532-19.259264 43.530463-10.96813 94.329422 21.132574 129.477185s81.941695 47.998941 127.035501 32.755283c-6.153148 14.76163-7.731309 31.030967-4.53 46.7zm-209.62-112v48h-16v-48zm0-144v48h-16v-48zm296 128v16h-10.26c2.279498-5.191516 4.187626-10.538285 5.71-16zm-16 27.24v5.17c-1.17.12-2.3.34-3.46.51 1.22-1.86 2.37-3.76 3.47-5.68zm-264 132.76h-56v-384h432v176h-16v-160h-400v64h-8v80h8v64h-8v80h8v64h238.74c2.507791 5.681161 5.669114 11.050712 9.42 16h-208.15zm208-48c.001634-16.438328 6.357985-32.23963 17.74-44.1 5.2183-3.461492 10.159831-7.323107 14.78-11.55 22.74479-12.964978 51.109266-10.675344 71.48 5.77v1.88h2.19c22.18524 19.449401 28.199998 51.544577 14.562639 77.70727-13.63736 26.162692-43.392626 39.612667-72.041994 32.564419-28.649367-7.048247-48.768164-32.768117-48.710645-62.271689zm216 64h-104.2c6.060386-4.553028 11.446972-9.939614 16-16h88.16zm0-64h-72c-.000325-5.374253-.543075-10.734752-1.62-16h73.62zm-128-96v-16h128v16z" fill="#000"/><path d="m40.72 112.52h16v48h-16z" fill="#ffce00"/><path d="m40.72 256.52h16v48h-16z" fill="#ffce00"/></g><circle cx="253" cy="228" fill="#007896" r="37"/><g transform="translate(216 191)"><g><path d="m48.7644589 41.0113792c-.7018118-.0009452-1.3742375.2688515-1.8645441.7481089l-4.952324 4.7833636c-1.1718475 1.1353305-2.7718619 1.7745903-4.4416528 1.7745903-1.6697908 0-3.2698052-.6392598-4.4416527-1.7745903l-4.940448-4.7946985c-.4903066-.4792575-1.1627323-.7490542-1.864544-.748109-.7059281-.0040163-1.3832413.2660214-1.8764202.748109-1.8438308 1.7941432-1.8438308 4.666798 0 6.4609412l9.7740113 9.4533773c.8741806.8554833 2.0732698 1.3377902 3.3253015 1.3375282 1.2520316.000262 2.4511208-.4820449 3.3253015-1.3375282l9.8096395-9.4533773c1.8438308-1.7941432 1.8438308-4.666798 0-6.4609412-.4893998-.472284-1.1567032-.737659-1.852668-.736774z" fill="#fff" fill-rule="evenodd"/><path d="m48.7644965 40.0113785c.953339-.0008775 1.8700111.3638437 2.5500144 1.020077 2.2473188 2.186758 2.2473188 5.7075786-.0034736 7.8977003l-9.8041277 9.4480246c-1.0623459 1.0396241-2.5130461 1.6231358-4.0245145 1.6228195-1.5118868.0003163-2.962587-.5831954-4.0207292-1.6187297l-9.7761768-9.4554781c-2.2473188-2.186758-2.2473188-5.7075786-.0016359-7.8927411.6826736-.6673207 1.6136592-1.0384949 2.5740934-1.0330059.961858-.0012954 1.886178.3695686 2.5623331 1.0304953l4.9398335 4.7941027c.9840826.9534168 2.3341114 1.4927989 3.7458248 1.4927989s2.7617422-.5393821 3.7469223-1.4938604l4.9480513-4.779212c.678408-.66312 1.6021973-1.0339483 2.5635849-1.0329911z" stroke="#000" stroke-width="2"/></g><g><path d="m50.6923119 17.2730241c-.7945945-.8171374-1.8825096-1.2761466-3.0172046-1.2730081-1.1843297.0018437-2.3177705.4858998-3.1433994 1.3424449l-7.5028584 7.6496213-7.3651913-7.5338933c-.8068881-.7988097-1.8983365-1.2367128-3.0286768-1.2151441-1.1843297.0018437-2.3177705.4858998-3.1433994 1.3424449l-9.1778085 9.3855414c-1.7245642 1.7360385-1.7551627 4.5448999-.0688336 6.3187493.9551935.9469595 2.4864847.9469595 3.4416782 0l4.6577378-4.7448484c1.1101072-1.1474478 2.6323905-1.7942461 4.2217919-1.7937841 1.5352735.0002741 3.0063628.6213788 4.0841248 1.7243473l4.5889042 4.6291204c.3453203.3576835.796039.5931369 1.2848932.6712224.8103156.1588097 1.6456658-.1018102 2.2256186-.694368l4.6577378-4.7448484c1.1101071-1.1474478 2.6323905-1.7942461 4.2217919-1.7937841 1.5352734.0002741 3.0063628.6213787 4.0841247 1.7243473l4.5889043 4.6291203c.438379.4575741 1.0441723.7128977 1.67495.7059409.661667-.0018947 1.2945634-.2731287 1.7552559-.7522321 1.6989458-1.761298 1.6887467-4.5700538-.0229445-6.3187492z" fill="#fff" fill-rule="evenodd"/><path d="m51.4089462 16.5755749 9.01519 9.2561846c2.0902069 2.135394 2.1026487 5.5617678.0291379 7.7113758-.6483011.6742095-1.5401845 1.0564348-2.4650485 1.0590499-.9075963.0100098-1.7786667-.35712-2.3961633-1.0018649l-4.5939516-4.6342487c-.8898832-.9106958-2.1032975-1.4230082-3.3691831-1.4232341-1.318004-.0003831-2.5809191.536213-3.5078741 1.4943098l-4.6566977 4.7437873c-.8152368.8329557-1.9913792 1.1998989-3.0980178.9823854-.7031319-.1123124-1.3509043-.4507058-1.8373461-.9546893l-4.5939516-4.6342487c-.8898833-.9106958-2.1032976-1.4230081-3.3691832-1.4232341-1.3180039-.0003831-2.5809191.536213-3.507874 1.4943099l-4.6673257 4.7544836c-1.3450057 1.3334115-3.504751 1.3334115-4.8704777-.0211599-2.0591516-2.1660212-2.0218248-5.5925256.0786189-7.7069005l9.1728025-9.3803852c1.0134972-1.0514482 2.4060988-1.6461836 3.8443021-1.648269 1.4007071-.0267278 2.7526999.5157091 3.7628225 1.5159067l6.6512962 6.8036462 6.7817051-6.9143127c1.0134972-1.0514482 2.4060989-1.6461836 3.8606144-1.6484472 1.4059233-.0038887 2.7533278.5645442 3.7366048 1.5755551z" stroke="#000" stroke-width="2"/></g></g></g></svg>

<?xml version="1.0" encoding="UTF-8"?>
<svg width="553px" height="473px" viewBox="0 0 553 473" version="1.1" xmlns="http://www.w3.org/2000/svg" xmlns:xlink="http://www.w3.org/1999/xlink">
    <!-- Generator: Sketch 48.2 (47327) - http://www.bohemiancoding.com/sketch -->
    <title>Artboard</title>
    <desc>Created with Sketch.</desc>
    <defs>
        <path d="M48.7644589,41.0113792 C48.0626471,41.010434 47.3902214,41.2802307 46.8999148,41.7594881 L41.9475908,46.5428517 C40.7757433,47.6781822 39.1757289,48.317442 37.505938,48.317442 C35.8361472,48.317442 34.2361328,47.6781822 33.0642853,46.5428517 L28.1238373,41.7481532 C27.6335307,41.2688957 26.961105,40.999099 26.2592933,41.0000442 C25.5533652,40.9960279 24.876052,41.2660656 24.3828731,41.7481532 C22.5390423,43.5422964 22.5390423,46.4149512 24.3828731,48.2090944 L34.1568844,57.6624717 C35.031065,58.517955 36.2301542,59.0002619 37.4821859,58.9999999 C38.7342175,59.0002619 39.9333067,58.517955 40.8074874,57.6624717 L50.6171269,48.2090944 C52.4609577,46.4149512 52.4609577,43.5422964 50.6171269,41.7481532 C50.1277271,41.2758692 49.4604237,41.0104942 48.7644589,41.0113792 Z" id="path-1"></path>
        <path d="M50.6923119,17.2730241 C49.8977174,16.4558867 48.8098023,15.9968775 47.6751073,16.000016 C46.4907776,16.0018597 45.3573368,16.4859158 44.5317079,17.3424609 L37.0288495,24.9920822 L29.6636582,17.4581889 C28.8567701,16.6593792 27.7653217,16.2214761 26.6349814,16.2430448 C25.4506517,16.2448885 24.3172109,16.7289446 23.491582,17.5854897 L14.3137735,26.9710311 C12.5892093,28.7070696 12.5586108,31.515931 14.2449399,33.2897804 C15.2001334,34.2367399 16.7314246,34.2367399 17.6866181,33.2897804 L22.3443559,28.544932 C23.4544631,27.3974842 24.9767464,26.7506859 26.5661478,26.7511479 C28.1014213,26.751422 29.5725106,27.3725267 30.6502726,28.4754952 L35.2391768,33.1046156 C35.5844971,33.4622991 36.0352158,33.6977525 36.52407,33.775838 C37.3343856,33.9346477 38.1697358,33.6740278 38.7496886,33.08147 L43.4074264,28.3366216 C44.5175335,27.1891738 46.0398169,26.5423755 47.6292183,26.5428375 C49.1644917,26.5431116 50.6355811,27.1642162 51.713343,28.2671848 L56.3022473,32.8963051 C56.7406263,33.3538792 57.3464196,33.6092028 57.9771973,33.602246 C58.6388643,33.6003513 59.2717607,33.3291173 59.7324532,32.8500139 C61.431399,31.0887159 61.4211999,28.2799601 59.7095087,26.5312647 L50.6923119,17.2730241 Z" id="path-2"></path>
    </defs>
    <g id="Page-1" stroke="none" stroke-width="1" fill="none" fill-rule="evenodd">
        <g id="Artboard" fill-rule="nonzero">
            <g id="slide-06" transform="translate(20.000000, 20.000000)">
                <rect id="Rectangle-path" fill="#DFDFE3" x="8.72" y="8.52" width="448" height="400"></rect>
                <path d="M488.72,264.52 L504.72,264.52 L504.72,232.52 L488.72,232.52 L488.72,200.52 L344.72,200.52 L344.72,232.52 L360.72,232.52 L360.72,264.52 L344.72,264.52 L344.72,280.52 C317.055173,280.503666 291.827559,296.339673 279.816914,321.261296 C267.80627,346.18292 271.136945,375.782214 288.385743,397.411404 C305.634541,419.040594 333.750627,428.874074 360.72,422.71 L360.72,424.52 L504.72,424.52 L504.72,392.52 L488.72,392.52 L488.72,360.52 L504.72,360.52 L504.72,328.52 L488.72,328.52 L488.72,264.52 Z" id="Shape" fill="#FFA21A"></path>
                <path d="M266.34,368.52 L48.72,368.52 L48.72,320.52 L72.72,320.52 L72.72,240.52 L48.72,240.52 L48.72,176.52 L72.72,176.52 L72.72,96.52 L48.72,96.52 L48.72,48.52 L416.72,48.52 L416.72,192.52 L384.72,192.52 L384.72,128.52 L400.72,128.52 L400.72,112.52 L368.72,112.52 L368.72,192.52 L351.59,192.52 C343.89,133.72 293.59,88.14 232.73,88.14 C185.129503,88.0254108 141.96119,116.057069 122.701925,159.587532 C103.442661,203.117995 111.733795,253.916954 143.834499,289.064717 C175.935203,324.21248 225.776194,337.063658 270.87,321.82 C264.716852,336.58163 263.138691,352.850967 266.34,368.52 Z" id="Shape" fill="#A1ABB8"></path>
                <path d="M288.21,295.95 C241.088793,325.876126 178.767939,313.488776 146.673106,267.81709 C114.578274,222.145404 124.040628,159.313891 168.163059,125.120437 C212.28549,90.9269836 275.490458,97.4436792 311.707864,139.920505 C347.925269,182.39733 344.368463,245.83773 303.63,284" id="Shape" fill="#7D8694"></path>
                <rect id="Rectangle-path" fill="#000000" x="64.72" y="64.52" width="16" height="16"></rect>
                <rect id="Rectangle-path" fill="#000000" x="384.72" y="64.52" width="16" height="16"></rect>
                <rect id="Rectangle-path" fill="#000000" x="64.72" y="336.52" width="16" height="16"></rect>
                <rect id="Rectangle-path" fill="#000000" x="224.72" y="272.52" width="16" height="24"></rect>
                <rect id="Rectangle-path" fill="#000000" x="224.72" y="120.52" width="16" height="24"></rect>
                <rect id="Rectangle-path" fill="#000000" x="144.72" y="200.52" width="24" height="16"></rect>
                <rect id="Rectangle-path" fill="#000000" x="296.72" y="200.52" width="24" height="16"></rect>
                <rect id="Rectangle-path" fill="#000000" transform="translate(286.425037, 262.237020) rotate(-45.020000) translate(-286.425037, -262.237020) " x="278.430037" y="250.23702" width="15.99" height="24"></rect>
                <rect id="Rectangle-path" fill="#000000" transform="translate(178.958294, 154.738867) rotate(-45.020000) translate(-178.958294, -154.738867) " x="170.963294" y="142.738867" width="15.99" height="24"></rect>
                <rect id="Rectangle-path" fill="#000000" transform="translate(178.986632, 262.273271) rotate(-44.990000) translate(-178.986632, -262.273271) " x="166.986632" y="254.278271" width="24" height="15.99"></rect>
                <rect id="Rectangle-path" fill="#000000" transform="translate(286.451947, 154.780667) rotate(-44.990000) translate(-286.451947, -154.780667) " x="274.451947" y="146.785667" width="24" height="15.99"></rect>
                <path d="M280.07,201.88 L294.85,186.56 L273.73,183.93 C261.080955,162.769557 234.458731,154.631894 212.140557,165.103845 C189.822382,175.575795 179.065996,201.251942 187.25609,224.504577 C195.446185,247.757212 219.91939,261.024714 243.873864,255.198409 C267.828339,249.372104 283.474228,226.346673 280.07,201.93 L280.07,201.88 Z M232.73,245.68 C212.207099,245.68 195.57,229.042901 195.57,208.52 C195.57,187.997099 212.207099,171.36 232.73,171.36 C253.252901,171.36 269.89,187.997099 269.89,208.52 C269.89,218.377178 265.973567,227.830485 259.002553,234.799624 C252.031538,241.768764 242.577177,245.682653 232.72,245.68 L232.73,245.68 Z" id="Shape" fill="#000000"></path>
                <path d="M344.72,304.52 C318.210332,304.52 296.72,326.010332 296.72,352.52 C296.72,379.029668 318.210332,400.52 344.72,400.52 C371.229668,400.52 392.72,379.029668 392.72,352.52 C392.72,326.010332 371.229668,304.52 344.72,304.52 Z M344.72,394.71 C321.419106,394.71 302.53,375.820894 302.53,352.52 C302.53,329.219106 321.419106,310.33 344.72,310.33 C368.020894,310.33 386.91,329.219106 386.91,352.52 C386.887949,375.811754 368.011754,394.687949 344.72,394.71 Z" id="Shape" fill="#FFFFFF"></path>
                <path d="M496.72,288.52 L496.72,272.52 L512.72,272.52 L512.72,224.52 L496.72,224.52 L496.72,192.52 L464.72,192.52 L464.72,0.52 L0.72,0.52 L0.72,416.52 L72.72,416.52 L72.72,432.52 L144.72,432.52 L144.72,416.52 L296.93,416.52 C312.894444,428.567837 332.822592,434.136574 352.72,432.11 L352.72,432.52 L512.72,432.52 L512.72,384.52 L496.72,384.52 L496.72,368.52 L512.72,368.52 L512.72,320.52 L496.72,320.52 L496.72,288.52 Z M480.72,208.52 L480.72,224.52 L352.72,224.52 L352.72,208.52 L480.72,208.52 Z M423.1,368.52 L480.72,368.52 L480.72,384.52 L418,384.52 C420.268921,379.384111 421.981998,374.020269 423.11,368.52 L423.1,368.52 Z M408.56,304.52 L480.71,304.52 L480.71,320.52 L418,320.52 C415.489064,314.83836 412.324374,309.468789 408.57,304.52 L408.56,304.52 Z M400.71,288.52 L392.5,288.52 C380.909933,279.785929 367.148492,274.394101 352.71,272.93 L352.71,272.52 L480.71,272.52 L480.71,288.52 L400.71,288.52 Z M288.2,295.95 C241.068914,325.859133 178.753342,313.450654 146.674155,267.768916 C114.594968,222.087177 124.077481,159.259772 168.210035,125.080639 C212.342589,90.9015064 275.544519,97.4373307 311.7489,139.92425 C347.95328,182.411168 344.378429,245.849495 303.63,284 C298.023664,287.342172 292.845498,291.355082 288.21,295.95 L288.2,295.95 Z M266.33,368.52 L48.72,368.52 L48.72,320.52 L72.72,320.52 L72.72,240.52 L48.72,240.52 L48.72,176.52 L72.72,176.52 L72.72,96.52 L48.72,96.52 L48.72,48.52 L416.72,48.52 L416.72,192.52 L384.72,192.52 L384.72,128.52 L400.72,128.52 L400.72,112.52 L368.72,112.52 L368.72,192.52 L351.59,192.52 C343.89,133.72 293.59,88.14 232.73,88.14 C185.129503,88.0254108 141.96119,116.057069 122.701925,159.587532 C103.442661,203.117995 111.733795,253.916954 143.834499,289.064717 C175.935203,324.21248 225.776194,337.063658 270.87,321.82 C264.716852,336.58163 263.138691,352.850967 266.34,368.52 L266.33,368.52 Z M56.71,256.52 L56.71,304.52 L40.71,304.52 L40.71,256.52 L56.71,256.52 Z M56.71,112.52 L56.71,160.52 L40.71,160.52 L40.71,112.52 L56.71,112.52 Z M352.71,240.52 L352.71,256.52 L342.45,256.52 C344.729498,251.328484 346.637626,245.981715 348.16,240.52 L352.71,240.52 Z M336.71,267.76 L336.71,272.93 C335.54,273.05 334.41,273.27 333.25,273.44 C334.47,271.58 335.62,269.68 336.72,267.76 L336.71,267.76 Z M72.71,400.52 L16.71,400.52 L16.71,16.52 L448.71,16.52 L448.71,192.52 L432.71,192.52 L432.71,32.52 L32.71,32.52 L32.71,96.52 L24.71,96.52 L24.71,176.52 L32.71,176.52 L32.71,240.52 L24.71,240.52 L24.71,320.52 L32.71,320.52 L32.71,384.52 L271.45,384.52 C273.957791,390.201161 277.119114,395.570712 280.87,400.52 L72.72,400.52 L72.71,400.52 Z M280.71,352.52 C280.711634,336.081672 287.067985,320.28037 298.45,308.42 C303.6683,304.958508 308.609831,301.096893 313.23,296.87 C335.97479,283.905022 364.339266,286.194656 384.71,302.64 L384.71,304.52 L386.9,304.52 C409.08524,323.969401 415.099998,356.064577 401.462639,382.22727 C387.825279,408.389962 358.070013,421.839937 329.420645,414.791689 C300.771278,407.743442 280.652481,382.023572 280.71,352.52 Z M496.71,416.52 L392.51,416.52 C398.570386,411.966972 403.956972,406.580386 408.51,400.52 L496.67,400.52 L496.71,416.52 Z M496.71,352.52 L424.71,352.52 C424.709675,347.145747 424.166925,341.785248 423.09,336.52 L496.71,336.52 L496.71,352.52 Z M368.71,256.52 L368.71,240.52 L496.71,240.52 L496.71,256.52 L368.71,256.52 Z" id="Shape" fill="#000000"></path>
                <rect id="Rectangle-path" fill="#FFCE00" x="40.72" y="112.52" width="16" height="48"></rect>
                <rect id="Rectangle-path" fill="#FFCE00" x="40.72" y="256.52" width="16" height="48"></rect>
            </g>
            <g id="mycrypto__circ__blue-on-navy__64" transform="translate(216.000000, 191.000000)">
                <circle id="Oval" fill="#007896" cx="37" cy="37" r="37"></circle>
                <g id="Shape">
                    <use fill="#FFFFFF" fill-rule="evenodd" xlink:href="#path-1"></use>
                    <path stroke="#000000" stroke-width="2" d="M48.7644965,40.0113785 C49.7178355,40.010501 50.6345076,40.3752222 51.3145109,41.0314555 C53.5618297,43.2182135 53.5618297,46.7390341 51.3110373,48.9291558 L41.5069096,58.3771804 C40.4445637,59.4168045 38.9938635,60.0003162 37.4823951,59.9999999 C35.9705083,60.0003162 34.5198081,59.4168045 33.4616659,58.3812702 L23.6854891,48.9257921 C21.4381703,46.7390341 21.4381703,43.2182135 23.6838532,41.033051 C24.3665268,40.3657303 25.2975124,39.9945561 26.2579466,40.0000451 C27.2198046,39.9987497 28.1441246,40.3696137 28.8202797,41.0305404 L33.7601132,45.8246431 C34.7441958,46.7780599 36.0942246,47.317442 37.505938,47.317442 C38.9176514,47.317442 40.2676802,46.7780599 41.2528603,45.8235816 L46.2009116,41.0443696 C46.8793196,40.3812496 47.8031089,40.0104213 48.7644965,40.0113785 Z"></path>
                </g>
                <g id="Shape">
                    <use fill="#FFFFFF" fill-rule="evenodd" xlink:href="#path-2"></use>
                    <path stroke="#000000" stroke-width="2" d="M51.4089462,16.5755749 L60.4241362,25.8317595 C62.5143431,27.9671535 62.5267849,31.3935273 60.4532741,33.5431353 C59.804973,34.2173448 58.9130896,34.5995701 57.9882256,34.6021852 C57.0806293,34.612195 56.2095589,34.2450652 55.5920623,33.6003203 L50.9981107,28.9660716 C50.1082275,28.0553758 48.8948132,27.5430634 47.6289276,27.5428375 C46.3109236,27.5424544 45.0480085,28.0790505 44.1210535,29.0371473 L39.4643558,33.7809346 C38.649119,34.6138903 37.4729766,34.9808335 36.366338,34.76332 C35.6632061,34.6510076 35.0154337,34.3126142 34.5289919,33.8086307 L29.9350403,29.174382 C29.045157,28.2636862 27.8317427,27.7513739 26.5658571,27.7511479 C25.2478532,27.7507648 23.984938,28.2873609 23.0579831,29.2454578 L18.3906574,33.9999414 C17.0456517,35.3333529 14.8859064,35.3333529 13.5201797,33.9787815 C11.4610281,31.8127603 11.4983549,28.3862559 13.5987986,26.271881 L22.7716011,16.8914958 C23.7850983,15.8400476 25.1776999,15.2453122 26.6159032,15.2432268 C28.0166103,15.216499 29.3686031,15.7589359 30.3787257,16.7591335 L37.0300219,23.5627797 L43.811727,16.648467 C44.8252242,15.5970188 46.2178259,15.0022834 47.6723414,15.0000198 C49.0782647,14.9961311 50.4256692,15.564564 51.4089462,16.5755749 Z"></path>
                </g>
            </g>
        </g>
    </g>
</svg>
